svg/Communication/phone-call.svg

<svg xmlns="http://www.w3.org/2000/svg" width="24" height="24" viewBox="0 0 24 24">
	<g fill="none" stroke="currentColor" stroke-width="2" stroke-linejoin="round" stroke-linecap="round">
		<path d="M8 3C8.5 3 10.5 7.5 10.5 8C10.5 9 9 10 8.5 11C8 12 9 13 10 14C10.3943 14.3943 12 16 13 15.5C14 15 15 13.5 16 13.5C16.5 13.5 21 15.5 21 16C21 18 19.5 19.5 18 20C16.5 20.5 15.5 20.5 13.5 20C11.5 19.5 10 19 7.5 16.5C5 14 4.5 12.5 4 10.5C3.5 8.5 3.5 7.5 4 6C4.5 4.5 6 3 8 3Z" stroke-dasharray="64" stroke-dashoffset="64">
			<animate attributeName="stroke-dashoffset" values="64;0" dur="0.6s" fill="freeze" />
		</path>
		<path d="M14 7.04404C14.6608 7.34734 15.2571 7.76718 15.7624 8.27723M16.956 10C16.6606 9.35636 16.2546 8.77401 15.7624 8.27723" stroke-dasharray="4" stroke-dashoffset="4" opacity="0">
			<set attributeName="opacity" to="1" begin="0.7s" />
			<animate attributeName="stroke-dashoffset" values="4;8" begin="0.7s" dur="0.2s" fill="freeze" />
		</path>
		<path d="M20.748 9C20.3874 7.59926 19.6571 6.347 18.6672 5.3535M15 3.25203C16.4105 3.61507 17.6704 4.3531 18.6672 5.3535" stroke-dasharray="10" stroke-dashoffset="10" opacity="0">
			<set attributeName="opacity" to="1" begin="1s" />
			<animate attributeName="stroke-dashoffset" values="10;20" begin="1s" dur="0.2s" fill="freeze" />
		</path>
	</g>
</svg>

<svg xmlns="http://www.w3.org/2000/svg" width="24" height="24" viewBox="0 0 24 24">
	<g fill="none" stroke="currentColor" stroke-width="2" stroke-linecap="round" stroke-linejoin="round">
		<path d="M8 3c0.5 0 2.5 4.5 2.5 5c0 1 -1.5 2 -2 3c-0.5 1 0.5 2 1.5 3c0.39 0.39 2 2 3 1.5c1 -0.5 2 -2 3 -2c0.5 0 5 2 5 2.5c0 2 -1.5 3.5 -3 4c-1.5 0.5 -2.5 0.5 -4.5 0c-2 -0.5 -3.5 -1 -6 -3.5c-2.5 -2.5 -3 -4 -3.5 -6c-0.5 -2 -0.5 -3 0 -4.5c0.5 -1.5 2 -3 4 -3Z" stroke-dasharray="64" stroke-dashoffset="64">
			<animate attributeName="stroke-dashoffset" values="64;0" dur="0.6s" fill="freeze" />
		</path>
		<path d="M15.76 8.28c-0.5 -0.51 -1.1 -0.93 -1.76 -1.24M15.76 8.28c0.49 0.49 0.9 1.08 1.2 1.72" stroke-dasharray="4" stroke-dashoffset="4">
			<animate attributeName="stroke-dashoffset" values="4;0" begin="0.7s" dur="0.3s" fill="freeze" />
		</path>
		<path d="M18.67 5.35c-1 -1 -2.26 -1.73 -3.67 -2.1M18.67 5.35c0.99 1 1.72 2.25 2.08 3.65" stroke-dasharray="8" stroke-dashoffset="8">
			<animate attributeName="stroke-dashoffset" values="8;0" begin="0.9s" dur="0.3s" fill="freeze" />
		</path>
	</g>
</svg>
